packages/core/assets/Icons/sort.svg

<svg viewBox="0 0 20 20" fill="none" xmlns="http://www.w3.org/2000/svg">
<path d="M3.33333 15C3.09722 15 2.89931 14.9201 2.73958 14.7604C2.57986 14.6007 2.5 14.4028 2.5 14.1667C2.5 13.9306 2.57986 13.7326 2.73958 13.5729C2.89931 13.4132 3.09722 13.3333 3.33333 13.3333H6.66667C6.90278 13.3333 7.10069 13.4132 7.26042 13.5729C7.42014 13.7326 7.5 13.9306 7.5 14.1667C7.5 14.4028 7.42014 14.6007 7.26042 14.7604C7.10069 14.9201 6.90278 15 6.66667 15H3.33333ZM3.33333 10.8333C3.09722 10.8333 2.89931 10.7535 2.73958 10.5938C2.57986 10.434 2.5 10.2361 2.5 10C2.5 9.76389 2.57986 9.56597 2.73958 9.40625C2.89931 9.24653 3.09722 9.16667 3.33333 9.16667H11.6667C11.9028 9.16667 12.1007 9.24653 12.2604 9.40625C12.4201 9.56597 12.5 9.76389 12.5 10C12.5 10.2361 12.4201 10.434 12.2604 10.5938C12.1007 10.7535 11.9028 10.8333 11.6667 10.8333H3.33333ZM3.33333 6.66667C3.09722 6.66667 2.89931 6.58681 2.73958 6.42708C2.57986 6.26736 2.5 6.06944 2.5 5.83333C2.5 5.59722 2.57986 5.39931 2.73958 5.23958C2.89931 5.07986 3.09722 5 3.33333 5H16.6667C16.9028 5 17.1007 5.07986 17.2604 5.23958C17.4201 5.39931 17.5 5.59722 17.5 5.83333C17.5 6.06944 17.4201 6.26736 17.2604 6.42708C17.1007 6.58681 16.9028 6.66667 16.6667 6.66667H3.33333Z" fill="currentColor"/>
</svg>

<svg xmlns="http://www.w3.org/2000/svg" width="20" height="20" fill="none" viewBox="0 0 20 20">
  <path fill="#201F1F" d="M3.333 15a.806.806 0 0 1-.593-.24.806.806 0 0 1-.24-.593c0-.236.08-.434.24-.594.16-.16.357-.24.593-.24h3.334c.236 0 .434.08.593.24.16.16.24.358.24.594s-.08.434-.24.593a.806.806 0 0 1-.593.24H3.333Zm0-4.167a.806.806 0 0 1-.593-.24A.807.807 0 0 1 2.5 10c0-.236.08-.434.24-.594.16-.16.357-.24.593-.24h8.334c.236 0 .434.08.593.24.16.16.24.358.24.594s-.08.434-.24.594a.806.806 0 0 1-.593.24H3.333Zm0-4.166a.806.806 0 0 1-.593-.24.806.806 0 0 1-.24-.594c0-.236.08-.434.24-.593.16-.16.357-.24.593-.24h13.334c.236 0 .434.08.593.24.16.16.24.357.24.593s-.08.434-.24.594a.806.806 0 0 1-.593.24H3.333Z"/>
</svg>
